
(tool change to 4 mm Carbide Slot Cutter)
N70T2M06
N80G17G90G21G54
(TopMount)
N90G00X45.048Y153.233S7000M03
N100G00Z2
N110G01Z-1.75F150
N120G02X52.753Y174.227I24.988J2.74F800
N130G01X52.753Y177.095
N140G02X54.753Y179.095I2J0
N150G01X85.265Y179.095
N160G02X87.265Y177.095I0J-1.999
N170G01X87.265Y174.227
N180G02X94.951Y153.229I-17.243J-18.218
N190G02X92.964Y151.451I-1.987J0.221
N200G01X90.065Y151.451
N210G02X87.138Y153.032I0J3.5
N220G01X86.355Y154.225
N230G03X85.937Y154.451I-0.418J-0.274
N240G01X83.092Y154.451
N250G02X81.093Y156.382I0J2
N260G03X58.906Y156.382I-11.093J-0.382
N270G02X56.907Y154.451I-1.998J0.068
N280G01X54.062Y154.451
N290G03X53.644Y154.225I0J-0.5
N300G01X52.861Y153.032
N310G02X49.934Y151.451I-2.927J1.919
N320G01X47.036Y151.451
N330G02X45.048Y153.233I0J2
N340G00Z5
N350G00X45.048Y153.233
N360G00Z2
N370G01Z-3.5F150
N380G02X52.753Y174.227I24.988J2.74F800
N390G01X52.753Y177.095
N400G02X54.753Y179.095I2J0
N410G01X85.265Y179.095
N420G02X87.265Y177.095I0J-1.999
N430G01X87.265Y174.227
N440G02X94.951Y153.229I-17.243J-18.218
N450G02X92.964Y151.451I-1.987J0.221
N460G01X90.065Y151.451
N470G02X87.138Y153.032I0J3.5
N480G01X86.355Y154.225
N490G03X85.937Y154.451I-0.418J-0.274
N500G01X83.092Y154.451
N510G02X81.093Y156.382I0J2
N520G03X58.906Y156.382I-11.093J-0.382
N530G02X56.907Y154.451I-1.998J0.068
N540G01X54.062Y154.451
N550G03X53.644Y154.225I0J-0.5
N560G01X52.861Y153.032
N570G02X49.934Y151.451I-2.927J1.919
N580G01X47.036Y151.451
N590G02X45.048Y153.233I0J2
N600G00Z5
N610G00X45.048Y153.233
N620G00Z2
N630G01Z-5.25F150
N640G02X52.753Y174.227I24.988J2.74F800
N650G01X52.753Y177.095
N660G02X54.753Y179.095I2J0
N670G01X85.265Y179.095
N680G02X87.265Y177.095I0J-1.999
N690G01X87.265Y174.227
N700G02X94.951Y153.229I-17.243J-18.218
N710G02X92.964Y151.451I-1.987J0.221
N720G01X90.065Y151.451
N730G02X87.138Y153.032I0J3.5
N740G01X86.355Y154.225
N750G03X85.937Y154.451I-0.418J-0.274
N760G01X83.092Y154.451
N770G02X81.093Y156.382I0J2
N780G03X58.906Y156.382I-11.093J-0.382
N790G02X56.907Y154.451I-1.998J0.068
N800G01X54.062Y154.451
N810G03X53.644Y154.225I0J-0.5
N820G01X52.861Y153.032
N830G02X49.934Y151.451I-2.927J1.919
N840G01X47.036Y151.451
N850G02X45.048Y153.233I0J2
N860G00Z5
N870G00X45.048Y153.233
N880G00Z2
N890G01Z-7F150
N900G02X52.753Y174.227I24.988J2.74F800
N910G01X52.753Y177.095
N920G02X54.753Y179.095I2J0
N930G01X85.265Y179.095
N940G02X87.265Y177.095I0J-1.999
N950G01X87.265Y174.227
N960G02X94.951Y153.229I-17.243J-18.218
N970G02X92.964Y151.451I-1.987J0.221
N980G01X90.065Y151.451
N990G02X87.138Y153.032I0J3.5
N1000G01X86.355Y154.225
N1010G03X85.937Y154.451I-0.418J-0.274
N1020G01X83.092Y154.451
N1030G02X81.093Y156.382I0J2
N1040G03X58.906Y156.382I-11.093J-0.382
N1050G02X56.907Y154.451I-1.998J0.068
N1060G01X54.062Y154.451
N1070G03X53.644Y154.225I0J-0.5
N1080G01X52.861Y153.032
N1090G02X49.934Y151.451I-2.927J1.919
N1100G01X47.036Y151.451
N1110G02X45.048Y153.233I0J2
N1120G00Z5
N1130G00X45.048Y153.233
N1140G00Z2
N1150G01Z-8.75F150
N1160G02X52.753Y174.227I24.988J2.74F800
N1170G01X52.753Y177.095
N1180G02X54.753Y179.095I2J0
N1190G01X85.265Y179.095
N1200G02X87.265Y177.095I0J-1.999
N1210G01X87.265Y174.227
N1220G02X94.951Y153.229I-17.243J-18.218
N1230G02X92.964Y151.451I-1.987J0.221
N1240G01X90.065Y151.451
N1250G02X87.138Y153.032I0J3.5
N1260G01X86.355Y154.225
N1270G03X85.937Y154.451I-0.418J-0.274
N1280G01X83.092Y154.451
N1290G02X81.093Y156.382I0J2
N1300G03X58.906Y156.382I-11.093J-0.382
N1310G02X56.907Y154.451I-1.998J0.068
N1320G01X54.062Y154.451
N1330G03X53.644Y154.225I0J-0.5
N1340G01X52.861Y153.032
N1350G02X49.934Y151.451I-2.927J1.919
N1360G01X47.036Y151.451
N1370G02X45.048Y153.233I0J2
N1380G00Z5
N1390G00X45.048Y153.233
N1400G00Z2
N1410G01Z-10.5F150
N1420G02X52.753Y174.227I24.988J2.74F800
N1430G01X52.753Y177.095
N1440G02X54.753Y179.095I2J0
N1450G01X85.265Y179.095
N1460G02X87.265Y177.095I0J-1.999
N1470G01X87.265Y174.227
N1480G02X94.951Y153.229I-17.243J-18.218
N1490G02X92.964Y151.451I-1.987J0.221
N1500G01X90.065Y151.451
N1510G02X87.138Y153.032I0J3.5
N1520G01X86.355Y154.225
N1530G03X85.937Y154.451I-0.418J-0.274
N1540G01X83.092Y154.451
N1550G02X81.093Y156.382I0J2
N1560G03X58.906Y156.382I-11.093J-0.382
N1570G02X56.907Y154.451I-1.998J0.068
N1580G01X54.062Y154.451
N1590G03X53.644Y154.225I0J-0.5
N1600G01X52.861Y153.032
N1610G02X49.934Y151.451I-2.927J1.919
N1620G01X47.036Y151.451
N1630G02X45.048Y153.233I0J2
N1640G00Z5
N1650G90
(Sketch)
N1660G00X70Y127.75S7000M03
N1670G00Z2
N1680G01Z-1.75F150
N1690G03X64.25Y122I0J-5.75F800
N1700G03X70Y116.25I5.75J0
N1710G03X75.75Y122I0J5.75
N1720G03X70Y127.75I-5.75J0
N1730G00Z5
N1740G00X70Y127.75
N1750G00Z2
N1760G01Z-3.5F150
N1770G03X64.25Y122I0J-5.75F800
N1780G03X70Y116.25I5.75J0
N1790G03X75.75Y122I0J5.75
N1800G03X70Y127.75I-5.75J0
N1810G00Z5
N1820G00X70Y127.75
N1830G00Z2
N1840G01Z-5.25F150
N1850G03X64.25Y122I0J-5.75F800
N1860G03X70Y116.25I5.75J0
N1870G03X75.75Y122I0J5.75
N1880G03X70Y127.75I-5.75J0
N1890G00Z5
N1900G00X70Y127.75
N1910G00Z2
N1920G01Z-7F150
N1930G03X64.25Y122I0J-5.75F800
N1940G03X70Y116.25I5.75J0
N1950G03X75.75Y122I0J5.75
N1960G03X70Y127.75I-5.75J0
N1970G00Z5
N1980G00X70Y127.75
N1990G00Z2
N2000G01Z-8.75F150
N2010G03X64.25Y122I0J-5.75F800
N2020G03X70Y116.25I5.75J0
N2030G03X75.75Y122I0J5.75
N2040G03X70Y127.75I-5.75J0
N2050G00Z5
N2060G00X70Y127.75
N2070G00Z2
N2080G01Z-10.5F150
N2090G03X64.25Y122I0J-5.75F800
N2100G03X70Y116.25I5.75J0
N2110G03X75.75Y122I0J5.75
N2120G03X70Y127.75I-5.75J0
N2130G00Z5
N2140G90
(Nut)
N2150G00X63.25Y118.102S7000M03
N2160G00Z2
N2170G01Z-1.7F150
N2180G01X70Y114.205F800
N2190G01X76.75Y118.102
N2200G01X76.75Y125.897
N2210G01X70Y129.794
N2220G01X63.25Y125.897
N2230G01X63.25Y118.102
N2240G00Z5
N2250G00X63.25Y118.102
N2260G00Z2
N2270G01Z-3.4F150
N2280G01X70Y114.205F800
N2290G01X76.75Y118.102
N2300G01X76.75Y125.897
N2310G01X70Y129.794
N2320G01X63.25Y125.897
N2330G01X63.25Y118.102
N2340G00Z5
N2350G00X63.25Y118.102
N2360G00Z2
N2370G01Z-5.1F150
N2380G01X70Y114.205F800
N2390G01X76.75Y118.102
N2400G01X76.75Y125.897
N2410G01X70Y129.794
N2420G01X63.25Y125.897
N2430G01X63.25Y118.102
N2440G00Z5
N2450G00X63.25Y118.102
N2460G00Z2
N2470G01Z-6.8F150
N2480G01X70Y114.205F800
N2490G01X76.75Y118.102
N2500G01X76.75Y125.897
N2510G01X70Y129.794
N2520G01X63.25Y125.897
N2530G01X63.25Y118.102
N2540G00Z5
N2550G00X63.25Y118.102
N2560G00Z2
N2570G01Z-8.5F150
N2580G01X70Y114.205F800
N2590G01X76.75Y118.102
N2600G01X76.75Y125.897
N2610G01X70Y129.794
N2620G01X63.25Y125.897
N2630G01X63.25Y118.102
N2640G00Z5
N2650G90
(Sketch)
N2660G00X70Y130.25S7000M03
N2670G00Z2
N2680G01Z-1.833F150
N2690G03X61.75Y122I0J-8.25F800
N2700G03X70Y113.75I8.25J0
N2710G03X78.25Y122I0J8.25
N2720G03X70Y130.25I-8.25J0
N2730G00Z5
N2740G00X70Y130.25
N2750G00Z2
N2760G01Z-3.666F150
N2770G03X61.75Y122I0J-8.25F800
N2780G03X70Y113.75I8.25J0
N2790G03X78.25Y122I0J8.25
N2800G03X70Y130.25I-8.25J0
N2810G00Z5
N2820G00X70Y130.25
N2830G00Z2
N2840G01Z-5.5F150
N2850G03X61.75Y122I0J-8.25F800
N2860G03X70Y113.75I8.25J0
N2870G03X78.25Y122I0J8.25
N2880G03X70Y130.25I-8.25J0
N2890G00Z5
N2900G90
(BottomMount)
N2910G00X58.9Y149.958S7000M03
N2920G00Z2
N2930G01Z-1.75F150
N2940G03X81.099Y149.958I11.099J0.041F800
N2950G02X83.099Y151.951I1.999J-0.007
N2960G01X85.937Y151.951
N2970G02X89.282Y150.144I0J-4
N2980G01X90.065Y148.951
N2990G01X92.902Y148.951
N3000G02X94.885Y146.688I0J-2
N3010G02X86.52Y131.093I-24.85J3.287
N3020G03X83.863Y123.953I5.263J-6.024
N3030G02X56.137Y123.956I-13.863J-1.953
N3040G03X53.481Y131.096I-7.921J1.117
N3050G02X53.48Y131.097I1.316J1.505
N3060G02X45.114Y146.685I16.56J18.926
N3070G02X47.097Y148.951I1.982J0.265
N3080G01X49.934Y148.951
N3090G01X50.717Y150.144
N3100G02X54.062Y151.951I3.345J-2.193
N3110G01X56.9Y151.951
N3120G02X58.9Y149.958I0J-2
N3130G00Z5
N3140G00X58.9Y149.958
N3150G00Z2
N3160G01Z-3.5F150
N3170G03X81.099Y149.958I11.099J0.041F800
N3180G02X83.099Y151.951I1.999J-0.007
N3190G01X85.937Y151.951
N3200G02X89.282Y150.144I0J-4
N3210G01X90.065Y148.951
N3220G01X92.902Y148.951
N3230G02X94.885Y146.688I0J-2
N3240G02X86.52Y131.093I-24.85J3.287
N3250G03X83.863Y123.953I5.263J-6.024
N3260G02X56.137Y123.956I-13.863J-1.953
N3270G03X53.481Y131.096I-7.921J1.117
N3280G02X53.48Y131.097I1.316J1.505
N3290G02X45.114Y146.685I16.56J18.926
N3300G02X47.097Y148.951I1.982J0.265
N3310G01X49.934Y148.951
N3320G01X50.717Y150.144
N3330G02X54.062Y151.951I3.345J-2.193
N3340G01X56.9Y151.951
N3350G02X58.9Y149.958I0J-2
N3360G00Z5
N3370G00X58.9Y149.958
N3380G00Z2
N3390G01Z-5.25F150
N3400G03X81.099Y149.958I11.099J0.041F800
N3410G02X83.099Y151.951I1.999J-0.007
N3420G01X85.937Y151.951
N3430G02X89.282Y150.144I0J-4
N3440G01X90.065Y148.951
N3450G01X92.902Y148.951
N3460G02X94.885Y146.688I0J-2
N3470G02X86.52Y131.093I-24.85J3.287
N3480G03X83.863Y123.953I5.263J-6.024
N3490G02X56.137Y123.956I-13.863J-1.953
N3500G03X53.481Y131.096I-7.921J1.117
N3510G02X53.48Y131.097I1.316J1.505
N3520G02X45.114Y146.685I16.56J18.926
N3530G02X47.097Y148.951I1.982J0.265
N3540G01X49.934Y148.951
N3550G01X50.717Y150.144
N3560G02X54.062Y151.951I3.345J-2.193
N3570G01X56.9Y151.951
N3580G02X58.9Y149.958I0J-2
N3590G00Z5
N3600G00X58.9Y149.958
N3610G00Z2
N3620G01Z-7F150
N3630G03X81.099Y149.958I11.099J0.041F800
N3640G02X83.099Y151.951I1.999J-0.007
N3650G01X85.937Y151.951
N3660G02X89.282Y150.144I0J-4
N3670G01X90.065Y148.951
N3680G01X92.902Y148.951
N3690G02X94.885Y146.688I0J-2
N3700G02X86.52Y131.093I-24.85J3.287
N3710G03X83.863Y123.953I5.263J-6.024
N3720G02X56.137Y123.956I-13.863J-1.953
N3730G03X53.481Y131.096I-7.921J1.117
N3740G02X53.48Y131.097I1.316J1.505
N3750G02X45.114Y146.685I16.56J18.926
N3760G02X47.097Y148.951I1.982J0.265
N3770G01X49.934Y148.951
N3780G01X50.717Y150.144
N3790G02X54.062Y151.951I3.345J-2.193
N3800G01X56.9Y151.951
N3810G02X58.9Y149.958I0J-2
N3820G00Z5
N3830G00X58.9Y149.958
N3840G00Z2
N3850G01Z-8.75F150
N3860G03X81.099Y149.958I11.099J0.041F800
N3870G02X83.099Y151.951I1.999J-0.007
N3880G01X85.937Y151.951
N3890G02X89.282Y150.144I0J-4
N3900G01X90.065Y148.951
N3910G01X92.902Y148.951
N3920G02X94.885Y146.688I0J-2
N3930G02X86.52Y131.093I-24.85J3.287
N3940G03X83.863Y123.953I5.263J-6.024
N3950G02X56.137Y123.956I-13.863J-1.953
N3960G03X53.481Y131.096I-7.921J1.117
N3970G02X53.48Y131.097I1.316J1.505
N3980G02X45.114Y146.685I16.56J18.926
N3990G02X47.097Y148.951I1.982J0.265
N4000G01X49.934Y148.951
N4010G01X50.717Y150.144
N4020G02X54.062Y151.951I3.345J-2.193
N4030G01X56.9Y151.951
N4040G02X58.9Y149.958I0J-2
N4050G00Z5
N4060G00X58.9Y149.958
N4070G00Z2
N4080G01Z-10.5F150
N4090G03X81.099Y149.958I11.099J0.041F800
N4100G02X83.099Y151.951I1.999J-0.007
N4110G01X85.937Y151.951
N4120G02X89.282Y150.144I0J-4
N4130G01X90.065Y148.951
N4140G01X92.902Y148.951
N4150G02X94.885Y146.688I0J-2
N4160G02X86.52Y131.093I-24.85J3.287
N4170G03X83.863Y123.953I5.263J-6.024
N4180G02X56.137Y123.956I-13.863J-1.953
N4190G03X53.481Y131.096I-7.921J1.117
N4200G02X53.48Y131.097I1.316J1.505
N4210G02X45.114Y146.685I16.56J18.926
N4220G02X47.097Y148.951I1.982J0.265
N4230G01X49.934Y148.951
N4240G01X50.717Y150.144
N4250G02X54.062Y151.951I3.345J-2.193
N4260G01X56.9Y151.951
N4270G02X58.9Y149.958I0J-2
N4280G00Z5
N4290M02
