(tool change to 4 mm Carbide Slot Cutter)
(right side of top piece lies at 38,8 mm)
N70T2M06
N80G17G90G21G54
N90G00Z5S7000M03
N100G00X13.564Y6
N110G00Z2
N120G01Z-2F150
N130G01X13.539Y5.77F800
N140G03X13.566Y4I8.557J-0.754
N150G01X4.392Y4
N160G01X4.392Y6
N170G01X13.564Y6
N180G01X16.21Y8
N190G03X16.094Y7.756I5.726J-2.872
N200G01X15.875Y7.201
N210G01X15.799Y6.967
N220G01X15.65Y6.39
N230G03X15.527Y5.549I6.457J-1.373
N240G03X16.209Y2I6.72J-0.548
N250G01X2.392Y2
N260G01X2.392Y8
N270G01X16.21Y8
N280G00Z5
N290G00Z5
N300G00X13.564Y6
N310G00Z0
N320G01Z-3.75F150
N330G01X13.539Y5.77F800
N340G03X13.566Y4I8.557J-0.754
N350G01X4.392Y4
N360G01X4.392Y6
N370G01X13.564Y6
N380G01X16.21Y8
N390G03X16.094Y7.756I5.726J-2.872
N400G01X15.875Y7.201
N410G01X15.799Y6.967
N420G01X15.65Y6.39
N430G03X15.527Y5.549I6.457J-1.373
N440G03X16.209Y2I6.72J-0.548
N450G01X2.392Y2
N460G01X2.392Y8
N470G01X16.21Y8
N480G00Z5
N490G00Z5
N500G00Z5S7000M03
N510G00X40.114Y6
N520G00Z2
N530G01Z-2F150
N540G01X40.114Y4F800
N550G01X30.937Y4
N560G01X30.962Y4.197
N570G01X30.975Y4.35
N580G01X30.996Y4.774
N590G01X30.998Y4.896
N600G03X30.986Y5.468I-8.065J0.116
N610G01X30.94Y6
N620G01X40.114Y6
N630G01X42.114Y8
N640G01X42.114Y2
N650G01X28.296Y2
N660G03X28.41Y2.239I-1.454J0.84
N670G03X28.978Y4.449I-6.178J2.765
N680G03X28.994Y5.298I-6.677J0.55
N690G03X28.856Y6.386I-6.688J-0.295
N700G03X28.63Y7.204I-6.709J-1.413
N710G03X28.304Y7.984I-6.357J-2.199
N720G01X28.295Y8
N730G01X42.114Y8
N740G00Z5
N750G00Z5
N760G00X40.114Y6
N770G00Z0
N780G01Z-3.75F150
N790G01X40.114Y4F800
N800G01X30.937Y4
N810G01X30.962Y4.197
N820G01X30.975Y4.35
N830G01X30.996Y4.774
N840G01X30.998Y4.896
N850G03X30.986Y5.468I-8.065J0.116
N860G01X30.94Y6
N870G01X40.114Y6
N880G01X42.114Y8
N890G01X42.114Y2
N900G01X28.296Y2
N910G03X28.41Y2.239I-1.454J0.84
N920G03X28.978Y4.449I-6.178J2.765
N930G03X28.994Y5.298I-6.677J0.55
N940G03X28.856Y6.386I-6.688J-0.295
N950G03X28.63Y7.204I-6.709J-1.413
N960G03X28.304Y7.984I-6.357J-2.199
N970G01X28.295Y8
N980G01X42.114Y8
N990G00Z5
N1000G00Z5
(Sketch)
N1010G00X22.253Y11.75S7000M03
N1020G00Z2
N1030G01Z-1.875F150
N1040G02X29.003Y5I0J-6.75F800
N1050G02X22.253Y-1.75I-6.75J0
N1060G02X15.503Y5I0J6.75
N1070G02X22.253Y11.75I6.75J0
N1080G00Z5
N1090G00X22.253Y11.75
N1100G00Z2
N1110G01Z-3.75F150
N1120G02X29.003Y5I0J-6.75F800
N1130G02X22.253Y-1.75I-6.75J0
N1140G02X15.503Y5I0J6.75
N1150G02X22.253Y11.75I6.75J0
N1160G00Z5
N1170G90
(Slit)
N1180G00X22.253Y5S7000M03
N1190G00Z2
N1200G01Z-1.687F150
N1210G01X38.765Y5F800
N1220G00Z5
N1230G00X22.253Y5
N1240G00Z2
N1250G01Z-3.375F150
N1260G01X38.765Y5F800
N1270G00Z5
N1280G00X22.253Y5
N1290G00Z2
N1300G01Z-5.062F150
N1310G01X38.765Y5F800
N1320G00Z5
N1330G00X22.253Y5
N1340G00Z2
N1350G01Z-6.75F150
N1360G01X38.765Y5F800
N1370G00Z5
N1380M02
