(tool change to 4 mm Carbide Slot Cutter)
N70T2M06
N80G17G90G21G54
(Sketch)
N90G00X0Y1.75S7000M03
N100G00Z-18
N110G01Z-21.785F150
N120G03X-1.75Y0I0J-1.75F800
N130G03X0Y-1.75I1.75J0
N140G03X1.75Y0I0J1.75
N150G03X0Y1.75I-1.75J0
N160G00Z5
N170G00X0Y1.75
N180G00Z-18
N190G01Z-23.571F150
N200G03X-1.75Y0I0J-1.75F800
N210G03X0Y-1.75I1.75J0
N220G03X1.75Y0I0J1.75
N230G03X0Y1.75I-1.75J0
N240G00Z5
N250G00X0Y1.75
N260G00Z-18
N270G01Z-25.357F150
N280G03X-1.75Y0I0J-1.75F800
N290G03X0Y-1.75I1.75J0
N300G03X1.75Y0I0J1.75
N310G03X0Y1.75I-1.75J0
N320G00Z5
N330G00X0Y1.75
N340G00Z-18
N350G01Z-27.142F150
N360G03X-1.75Y0I0J-1.75F800
N370G03X0Y-1.75I1.75J0
N380G03X1.75Y0I0J1.75
N390G03X0Y1.75I-1.75J0
N400G00Z5
N410G00X0Y1.75
N420G00Z-18
N430G01Z-28.928F150
N440G03X-1.75Y0I0J-1.75F800
N450G03X0Y-1.75I1.75J0
N460G03X1.75Y0I0J1.75
N470G03X0Y1.75I-1.75J0
N480G00Z5
N490G00X0Y1.75
N500G00Z-18
N510G01Z-30.714F150
N520G03X-1.75Y0I0J-1.75F800
N530G03X0Y-1.75I1.75J0
N540G03X1.75Y0I0J1.75
N550G03X0Y1.75I-1.75J0
N560G00Z5
N570G00X0Y1.75
N580G00Z-18
N590G01Z-32.5F150
N600G03X-1.75Y0I0J-1.75F800
N610G03X0Y-1.75I1.75J0
N620G03X1.75Y0I0J1.75
N630G03X0Y1.75I-1.75J0
N640G00Z5
N650M02
